Numix-GalliumOS/48/status/pamac-setup.svg

<?xml version="1.0" encoding="UTF-8" standalone="no"?>
<svg
   xmlns:dc="http://purl.org/dc/elements/1.1/"
   xmlns:cc="http://creativecommons.org/ns#"
   xmlns:rdf="http://www.w3.org/1999/02/22-rdf-syntax-ns#"
   xmlns:svg="http://www.w3.org/2000/svg"
   xmlns="http://www.w3.org/2000/svg"
   xmlns:sodipodi="http://sodipodi.sourceforge.net/DTD/sodipodi-0.dtd"
   xmlns:inkscape="http://www.inkscape.org/namespaces/inkscape"
   width="48"
   height="48"
   viewBox="0 0 48 48"
   id="svg2"
   version="1.1"
   inkscape:version="0.91 r"
   sodipodi:docname="pamac-setup.svg">
  <metadata
     id="metadata10">
    <rdf:RDF>
      <cc:Work
         rdf:about="">
        <dc:format>image/svg+xml</dc:format>
        <dc:type
           rdf:resource="http://purl.org/dc/dcmitype/StillImage" />
        <dc:title />
      </cc:Work>
    </rdf:RDF>
  </metadata>
  <defs
     id="defs8">
    <clipPath
       id="clipPath-408241621-1">
      <g
         id="g3616-3"
         transform="translate(0,-1004.3622)">
        <path
           id="path3618-3"
           transform="matrix(15.333333,0,0,11.5,414.99999,878.8622)"
           d="m -24,13 c 0,1.105 -0.672,2 -1.5,2 -0.828,0 -1.5,-0.895 -1.5,-2 0,-1.105 0.672,-2 1.5,-2 0.828,0 1.5,0.895 1.5,2 z"
           inkscape:connector-curvature="0"
           style="fill:#1890d0" />
      </g>
    </clipPath>
  </defs>
  <sodipodi:namedview
     pagecolor="#ffffff"
     bordercolor="#666666"
     borderopacity="1"
     objecttolerance="10"
     gridtolerance="10"
     guidetolerance="10"
     inkscape:pageopacity="0"
     inkscape:pageshadow="2"
     inkscape:window-width="1366"
     inkscape:window-height="747"
     id="namedview6"
     showgrid="true"
     inkscape:zoom="4.0000003"
     inkscape:cx="-2.2173244"
     inkscape:cy="38.102623"
     inkscape:window-x="0"
     inkscape:window-y="21"
     inkscape:window-maximized="1"
     inkscape:current-layer="svg2">
    <inkscape:grid
       type="xygrid"
       id="grid4138" />
  </sodipodi:namedview>
  <path
     style="fill:#c28e5c"
     d="m 15,7 -8,9 15,0 0,-9 z m 11,0 0,9 15,0 -8,-9 z M 7,19 7,41 27.833984,41 C 27.38971,40.533978 27,39.85322 27,38.890625 l 0,-1.777344 c 0,-1.571064 1.075018,-2.439909 1.703125,-2.771484 -0.05014,-0.109868 -0.129468,-0.13786 -0.173828,-0.267578 -0.235644,-0.689103 -0.360718,-2.2495 0.833984,-3.341797 l 1.242188,-1.175781 0.002,-0.0039 c 1.179967,-1.110566 2.465129,-0.893255 3.099609,-0.699218 0.173221,0.05297 0.239162,0.157526 0.38086,0.222656 0.04856,-0.02147 0.105306,-0.02616 0.154297,-0.04687 0.05113,-0.126783 0.0178,-0.227312 0.0918,-0.363281 C 34.674795,28.039803 35.569879,27 37.099609,27 l 1.800782,0 C 39.82947,27 40.521119,27.384652 41,27.826172 L 41,19 Z"
     id="path4"
     inkscape:connector-curvature="0"
     sodipodi:nodetypes="cccccccccccccsscccccsccsssccc" />
  <g
     id="g4161-9"
     transform="matrix(1.3636364,0,0,1.3636364,23.363636,23.499999)"
     style="fill:#4db147;fill-opacity:1;stroke:#000000;stroke-opacity:1;stroke-width:4.39999988;stroke-miterlimit:4;stroke-dasharray:none">
    <g
       style="fill:#4db147;fill-opacity:1;stroke:#000000;stroke-opacity:1;stroke-width:12.64999955;stroke-miterlimit:4;stroke-dasharray:none"
       id="g3628-2"
       transform="matrix(0.34782609,0,0,0.34782609,2.6435901,2.6456559)" />
    <g
       transform="matrix(0.49988464,0,0,0.49988464,-37.411065,7.9950011)"
       clip-path="url(#clipPath-408241621-1)"
       id="g3650-2"
       style="fill:#4db147;fill-opacity:1;stroke:#000000;stroke-opacity:1;stroke-width:8.80203057;stroke-miterlimit:4;stroke-dasharray:none">
      <!-- color: #004794 -->
      <g
         id="g3652-0"
         style="fill:#4db147;fill-opacity:1;stroke:#000000;stroke-opacity:1;stroke-width:8.80203057;stroke-miterlimit:4;stroke-dasharray:none" />
    </g>
  </g>
  <g
     id="g4190"
     transform="translate(-10.499001,19.375)" />
  <g
     id="g4448"
     transform="translate(62.304688,-4.054688)"
     style="fill:#d481e2;fill-opacity:1">
    <path
       style="color:#000000;font-style:normal;font-variant:normal;font-weight:normal;font-stretch:normal;font-size:medium;line-height:normal;font-family:sans-serif;text-indent:0;text-align:start;text-decoration:none;text-decoration-line:none;text-decoration-style:solid;text-decoration-color:#000000;letter-spacing:normal;word-spacing:normal;text-transform:none;direction:ltr;block-progression:tb;writing-mode:lr-tb;baseline-shift:baseline;text-anchor:start;white-space:normal;clip-rule:nonzero;display:inline;overflow:visible;visibility:visible;opacity:1;isolation:auto;mix-blend-mode:normal;color-interpolation:sRGB;color-interpolation-filters:linearRGB;solid-color:#000000;solid-opacity:1;fill:#d481e2;fill-opacity:1;fill-rule:nonzero;stroke:none;stroke-width:2.66630864;stroke-linecap:butt;stroke-linejoin:miter;stroke-miterlimit:4;stroke-dasharray:none;stroke-dashoffset:0;stroke-opacity:1;color-rendering:auto;image-rendering:auto;shape-rendering:auto;text-rendering:auto;enable-background:accumulate"
       d="M 37.099609 30 C 36.996456 30 36.914062 30.152476 36.914062 30.339844 L 36.914062 31.337891 C 35.781458 31.522849 34.745413 31.994706 33.875 32.671875 C 33.853562 32.642694 33.845907 32.613677 33.816406 32.585938 L 33.046875 31.855469 C 32.905822 31.722839 32.735642 31.670911 32.664062 31.738281 L 31.386719 32.947266 C 31.313034 33.014635 31.368713 33.175962 31.509766 33.308594 L 32.279297 34.039062 C 32.339192 34.096235 32.405175 34.130504 32.466797 34.154297 C 31.899067 34.968663 31.508026 35.912104 31.34375 36.929688 L 30.357422 36.929688 C 30.159528 36.929687 30 37.010123 30 37.113281 L 30 38.890625 C 30 38.991674 30.159528 39.074219 30.357422 39.074219 L 31.345703 39.074219 C 31.510189 40.090334 31.897475 41.032808 32.464844 41.845703 C 32.403619 41.869588 32.338741 41.904195 32.279297 41.960938 L 31.509766 42.691406 C 31.368711 42.824038 31.313029 42.985364 31.386719 43.052734 L 32.664062 44.261719 C 32.735641 44.329087 32.905822 44.277163 33.046875 44.144531 L 33.816406 43.414062 C 33.845907 43.386323 33.853562 43.357306 33.875 43.328125 C 34.745354 44.004629 35.783471 44.468888 36.914062 44.654297 L 36.914062 45.660156 C 36.914062 45.847524 36.996452 46 37.099609 46 L 38.900391 46 C 39.003544 46 39.085938 45.847524 39.085938 45.660156 L 39.085938 44.654297 C 40.216529 44.468888 41.254646 44.004628 42.125 43.328125 C 42.146438 43.357306 42.154093 43.386323 42.183594 43.414062 L 42.953125 44.144531 C 43.094178 44.277161 43.264356 44.329089 43.335938 44.261719 L 44.613281 43.052734 C 44.686966 42.985365 44.631287 42.824038 44.490234 42.691406 L 43.720703 41.960938 C 43.661259 41.904196 43.59638 41.869588 43.535156 41.845703 C 44.102525 41.032808 44.489811 40.090334 44.654297 39.074219 L 45.642578 39.074219 C 45.840472 39.074219 46 38.991678 46 38.890625 L 46 37.113281 C 46 37.010123 45.840472 36.929688 45.642578 36.929688 L 44.654297 36.929688 C 44.489597 35.912509 44.08883 34.976272 43.521484 34.164062 C 43.586617 34.14131 43.656696 34.100161 43.720703 34.039062 L 44.490234 33.308594 C 44.631289 33.175962 44.686961 33.014636 44.613281 32.947266 L 43.335938 31.738281 C 43.264358 31.670913 43.094178 31.722837 42.953125 31.855469 L 42.183594 32.585938 C 42.148872 32.618586 42.138707 32.653132 42.115234 32.6875 C 41.246338 32.0129 40.216032 31.536795 39.085938 31.351562 L 39.085938 30.339844 C 39.085938 30.152476 39.003548 30 38.900391 30 L 37.099609 30 z M 37.789062 33.917969 L 37.794922 33.917969 L 37.798828 33.917969 C 37.787028 33.918652 37.856189 33.919922 38 33.919922 C 40.271223 33.919922 42.083984 35.731342 42.083984 38.001953 C 42.083984 40.272562 40.270697 42.083984 38 42.083984 C 35.729303 42.083984 33.916016 40.272562 33.916016 38.001953 C 33.916016 35.802777 35.625141 34.02771 37.789062 33.917969 z M 38 36.595703 C 37.181053 36.595703 36.515625 37.225111 36.515625 38.001953 C 36.515625 38.77669 37.181053 39.40625 38 39.40625 C 38.818947 39.40625 39.484375 38.77669 39.484375 38.001953 C 39.484375 37.225111 38.818947 36.595703 38 36.595703 z "
       transform="translate(-62.304688,4.054688)"
       id="path4387" />
  </g>
  <g
     id="g4517"
     style="stroke:#000000;stroke-opacity:1;stroke-width:6;stroke-miterlimit:4;stroke-dasharray:none" />
</svg>

<svg xmlns="http://www.w3.org/2000/svg" viewBox="0 0 48 48">
 <path d="m 15 7 -8 9 15 0 0 -9 z m 11 0 0 9 15 0 -8 -9 z m -19 12 0 22 20.834 0 c -0.444 -0.466 -0.834 -1.147 -0.834 -2.109 l 0 -1.777 c 0 -1.571 1.075 -2.44 1.703 -2.771 -0.05 -0.11 -0.129 -0.138 -0.174 -0.268 -0.236 -0.689 -0.361 -2.25 0.834 -3.342 l 1.242 -1.176 0.002 -0.004 c 1.18 -1.111 2.465 -0.893 3.1 -0.699 0.173 0.053 0.239 0.158 0.381 0.223 0.049 -0.021 0.105 -0.026 0.154 -0.047 0.051 -0.127 0.018 -0.227 0.092 -0.363 c 0.341 -0.626 1.236 -1.666 2.766 -1.666 l 1.801 0 c 0.929 0 1.621 0.385 2.1 0.826 l 0 -8.826" style="fill:#c28e5c"/>
 <g transform="matrix(1.3636364,0,0,1.3636364,23.363636,23.499999)" style="stroke-dasharray:none;stroke-opacity:1;fill:#4db147;stroke-miterlimit:4;fill-opacity:1;stroke:#000;stroke-width:4.4">
  <g transform="matrix(0.49988464,0,0,0.49988464,-37.411065,7.9950011)" style="stroke-width:8.802">
   <!-- color: #004794 -->
  </g>
 </g>
 <g transform="translate(62.304688,-4.054688)" style="fill:#d481e2;fill-opacity:1">
  <path d="m 37.1 30 c -0.103 0 -0.186 0.152 -0.186 0.34 l 0 0.998 c -1.133 0.185 -2.169 0.657 -3.039 1.334 c -0.021 -0.029 -0.029 -0.058 -0.059 -0.086 l -0.77 -0.73 c -0.141 -0.133 -0.311 -0.185 -0.383 -0.117 l -1.277 1.209 c -0.074 0.067 -0.018 0.229 0.123 0.361 l 0.77 0.73 c 0.06 0.057 0.126 0.091 0.188 0.115 c -0.568 0.814 -0.959 1.758 -1.123 2.775 l -0.986 0 c -0.198 0 -0.357 0.08 -0.357 0.184 l 0 1.777 c 0 0.101 0.16 0.184 0.357 0.184 l 0.988 0 c 0.164 1.016 0.552 1.959 1.119 2.771 c -0.061 0.024 -0.126 0.058 -0.186 0.115 l -0.77 0.73 c -0.141 0.133 -0.197 0.294 -0.123 0.361 l 1.277 1.209 c 0.072 0.067 0.242 0.015 0.383 -0.117 l 0.77 -0.73 c 0.03 -0.028 0.037 -0.057 0.059 -0.086 c 0.87 0.677 1.908 1.141 3.039 1.326 l 0 1.01 c 0 0.187 0.082 0.34 0.186 0.34 l 1.801 0 c 0.103 0 0.186 -0.152 0.186 -0.34 l 0 -1.01 c 1.131 -0.185 2.169 -0.65 3.039 -1.326 c 0.021 0.029 0.029 0.058 0.059 0.086 l 0.77 0.73 c 0.141 0.133 0.311 0.185 0.383 0.117 l 1.277 -1.209 c 0.074 -0.067 0.018 -0.229 -0.123 -0.361 l -0.77 -0.73 c -0.059 -0.057 -0.124 -0.091 -0.186 -0.115 c 0.567 -0.813 0.955 -1.755 1.119 -2.771 l 0.988 0 c 0.198 0 0.357 -0.083 0.357 -0.184 l 0 -1.777 c 0 -0.103 -0.16 -0.184 -0.357 -0.184 l -0.988 0 c -0.165 -1.017 -0.565 -1.953 -1.133 -2.766 c 0.065 -0.023 0.135 -0.064 0.199 -0.125 l 0.77 -0.73 c 0.141 -0.133 0.197 -0.294 0.123 -0.361 l -1.277 -1.209 c -0.072 -0.067 -0.242 -0.015 -0.383 0.117 l -0.77 0.73 c -0.035 0.033 -0.045 0.067 -0.068 0.102 c -0.869 -0.675 -1.899 -1.151 -3.03 -1.336 l 0 -1.012 c 0 -0.187 -0.082 -0.34 -0.186 -0.34 l -1.801 0 z m 0.689 3.918 l 0.006 0 l 0.004 0 c -0.012 0.001 0.057 0.002 0.201 0.002 c 2.271 0 4.084 1.811 4.084 4.082 c 0 2.271 -1.813 4.082 -4.084 4.082 c -2.271 0 -4.084 -1.811 -4.084 -4.082 c 0 -2.199 1.709 -3.974 3.873 -4.084 z m 0.211 2.678 c -0.819 0 -1.484 0.629 -1.484 1.406 c 0 0.775 0.665 1.404 1.484 1.404 c 0.819 0 1.484 -0.63 1.484 -1.404 c 0 -0.777 -0.665 -1.406 -1.484 -1.406 z" transform="translate(-62.304688,4.054688)" mix-blend-mode="normal" isolation="auto" white-space="normal" solid-opacity="1" solid-color="#000000" style="visibility:visible;shape-rendering:auto;color-interpolation-filters:linearRGB;opacity:1;image-rendering:auto;stroke:none;display:inline;color:#000;fill-rule:nonzero;color-rendering:auto;color-interpolation:sRGB"/>
 </g>
</svg>
